images/cig.svg

<svg height="250" viewBox="0 0 250 250" width="250" xmlns="http://www.w3.org/2000/svg" xmlns:xlink="http://www.w3.org/1999/xlink"><linearGradient id="a" gradientUnits="userSpaceOnUse" x1="124.99995" x2="124.99995" y1="0" y2="249.9999"><stop offset="0" stop-color="#f08710"/><stop offset="1" stop-color="#f96d36"/></linearGradient><linearGradient id="b" gradientUnits="userSpaceOnUse" x1="124.99995" x2="124.99995" y1="8.33333" y2="241.66657"><stop offset="0" stop-color="#f0870d"/><stop offset="1" stop-color="#f09a39"/></linearGradient><path d="m250 125c0 69.035156-55.964844 125-125 125s-125-55.964844-125-125 55.964844-125 125-125 125 55.964844 125 125zm0 0" fill="url(#a)"/><path d="m241.667969 125c0 64.433594-52.234375 116.667969-116.667969 116.667969s-116.667969-52.234375-116.667969-116.667969 52.234375-116.667969 116.667969-116.667969 116.667969 52.234375 116.667969 116.667969zm0 0" fill="url(#b)"/><path d="m63.332031 151.667969h109.167969v18.332031h-109.167969zm0 0"/><path d="m63.332031 170h90v18.332031h-90zm0 0" fill="#fff"/><path d="m153.332031 170h19.167969v18.332031h-19.167969zm0 0" fill="#e25b26"/><path d="m63.332031 188.332031h109.167969v18.335938h-109.167969zm0 0"/><path d="m172.5 170h20v18.332031h-20zm0 0"/><path d="m153.332031 21.667969h17.5v110h-17.5zm0 0" fill="#fcf7d6"/></svg>

<svg xmlns="http://www.w3.org/2000/svg" width="250" height="250"><linearGradient id="a" x1="125" x2="125" y1="0" y2="250" gradientUnits="userSpaceOnUse"><stop offset="0" stop-color="#f08710"/><stop offset="1" stop-color="#f96d36"/></linearGradient><linearGradient id="b" x1="125" x2="125" y1="8.333" y2="241.667" gradientUnits="userSpaceOnUse"><stop offset="0" stop-color="#f0870d"/><stop offset="1" stop-color="#f09a39"/></linearGradient><path fill="url(#a)" d="M250 125c0 69.035-55.965 125-125 125S0 194.035 0 125 55.965 0 125 0s125 55.965 125 125zm0 0"/><path fill="url(#b)" d="M241.668 125c0 64.434-52.234 116.668-116.668 116.668S8.332 189.434 8.332 125 60.566 8.332 125 8.332 241.668 60.566 241.668 125zm0 0"/><path d="M63.332 151.668H172.5V170H63.332zm0 0"/><path fill="#fff" d="M63.332 170h90v18.332h-90zm0 0"/><path fill="#e25b26" d="M153.332 170H172.5v18.332h-19.168zm0 0"/><path d="M63.332 188.332H172.5v18.336H63.332zM172.5 170h20v18.332h-20zm0 0"/><path fill="#fcf7d6" d="M153.332 21.668h17.5v110h-17.5zm0 0"/></svg>
